www/src/components/thumbprint-www/featured/svg/about.svg

<svg width="100" height="100" viewBox="0 0 100 100" fill="none" xmlns="http://www.w3.org/2000/svg">
<rect width="100" height="100" fill="white"/>
<path d="M75.9045 15.0158C64.1305 14.5275 14.6346 25.4326 8.11015 37.7212C-4.71378 61.8915 25.1337 82.3183 42.8322 84.7597C56.0311 86.6315 86.4036 77.354 93.153 64.333C98.4026 54.4044 92.4031 15.6668 75.9045 15.0158Z" fill="#C7E5F2" fill-opacity="0.2"/>
<g clip-path="url(#clip0)">
<path d="M43.1194 77.7052H32.1662C30.4119 77.7052 29 76.2317 29 74.4011V24.3041C29 22.4734 30.4119 21 32.1662 21H43.1194C44.8736 21 46.2856 22.4734 46.2856 24.3041V74.4011C46.2856 76.2317 44.8736 77.7052 43.1194 77.7052Z" fill="#4661CC"/>
<path d="M70.1174 72.5258H72.0428V71.0077H32.808C30.7114 71.0077 29 72.7937 29 75.0262C29 77.2587 30.7114 79 32.808 79H72V77.4819H70.0746V72.5258H70.1174Z" fill="#A97FF0"/>
<path d="M30.7543 75.0262C30.7543 76.4103 31.8239 77.4819 33.1075 77.4819H70.2458V74.0439H30.9254C30.8398 74.3564 30.7543 74.669 30.7543 75.0262Z" fill="#C5E4F2"/>
<path d="M33.1504 72.5258C32.1663 72.5258 31.3106 73.1509 30.9683 74.0439H70.2887V72.5258H33.1504Z" fill="#DDDDDD"/>
<path d="M72 21H32.209V71.0077H72V21Z" fill="#6E85DF"/>
<path d="M66.9085 21H58.394V33.5466L62.6727 29.0816L66.9085 33.5466" fill="#FCCA53"/>
</g>
<path fill-rule="evenodd" clip-rule="evenodd" d="M42 46.9999C42 51.9705 46.0295 56 50.9999 56C55.9705 56 60 51.9705 60 46.9999C60 42.0294 55.9705 38 50.9999 38C46.0295 38 42 42.0294 42 46.9999Z" fill="white"/>
<path fill-rule="evenodd" clip-rule="evenodd" d="M52 50.2263C52 50.9549 51.8 51.6709 51.4201 52.3021L50.9999 53L50.5799 52.3021C50.2 51.6709 50 50.9549 50 50.2263V46.8957C50.4964 46.2342 51.2374 46 52 46V50.2263Z" fill="#6E85DF"/>
<path fill-rule="evenodd" clip-rule="evenodd" d="M47 45H55V43H47V45Z" fill="#6E85DF"/>
<defs>
<clipPath id="clip0">
<rect width="43" height="58" fill="white" transform="translate(29 21)"/>
</clipPath>
</defs>
</svg>

<svg width="100" height="100" fill="none" xmlns="http://www.w3.org/2000/svg"><path fill="#fff" d="M0 0H100V100H0z"/><path d="M75.904 15.016C64.132 14.527 14.634 25.433 8.11 37.72-4.714 61.891 25.134 82.318 42.832 84.76c13.2 1.871 43.572-7.406 50.321-20.427 5.25-9.929-.75-48.666-17.249-49.317z" fill="#C7E5F2" fill-opacity=".2"/><g clip-path="url(#clip0)"><path d="M43.12 77.705H32.165c-1.754 0-3.166-1.473-3.166-3.304V24.304C29 22.474 30.412 21 32.166 21H43.12c1.755 0 3.167 1.473 3.167 3.304v50.097c0 1.83-1.412 3.304-3.167 3.304z" fill="#4661CC"/><path d="M70.117 72.526h1.926v-1.518H32.808c-2.097 0-3.808 1.786-3.808 4.018C29 77.26 30.711 79 32.808 79H72v-1.518h-1.925v-4.956h.042z" fill="#A97FF0"/><path d="M30.754 75.026c0 1.384 1.07 2.456 2.354 2.456h37.138v-3.438h-39.32c-.086.312-.172.625-.172.982z" fill="#C5E4F2"/><path d="M33.15 72.526c-.984 0-1.84.625-2.182 1.518h39.32v-1.518H33.15z" fill="#DDD"/><path d="M72 21H32.209v50.008H72V21z" fill="#6E85DF"/><path d="M66.909 21h-8.515v12.547l4.279-4.465 4.236 4.465" fill="#FCCA53"/></g><path fill-rule="evenodd" clip-rule="evenodd" d="M42 47a9 9 0 1 0 18 0 9 9 0 0 0-18 0z" fill="#fff"/><path fill-rule="evenodd" clip-rule="evenodd" d="M52 50.226c0 .729-.2 1.445-.58 2.076L51 53l-.42-.698a4.023 4.023 0 0 1-.58-2.076v-3.33c.496-.662 1.237-.896 2-.896v4.226zM47 45h8v-2h-8v2z" fill="#6E85DF"/><defs><clipPath id="clip0"><path fill="#fff" transform="translate(29 21)" d="M0 0H43V58H0z"/></clipPath></defs></svg>
